X:123
T:Y Hwch yn y Haidd - The Pig in the Barley
M:2/4
L:1/8
Q:180
C:Trad.
R:Processional
K:G
E/F/ | GG FF | EE GG | FF B2 | GG FF | EE GG | E3 :||:
B |GB FA|EG A/G/F/E/|D3 B|GB FA|EG A/G/F/E/|E3 :||
